packages/bezier-icons/icons/bank.svg

<svg width="24" height="24" viewBox="0 0 24 24" fill="none" xmlns="http://www.w3.org/2000/svg">
<path fill-rule="evenodd" clip-rule="evenodd" d="M21 6.64992C21 6.25473 20.7673 5.89661 20.4061 5.7361L12.4061 2.18055C12.1476 2.06563 11.8524 2.06563 11.5939 2.18055L3.59386 5.7361C3.23273 5.89661 3 6.25473 3 6.64992V8.00004C3 8.55233 3.44772 9.00004 4 9.00004H20C20.5523 9.00004 21 8.55233 21 8.00004V6.64992ZM5.673 7.00004L12 4.18804L18.326 7.00004H5.673Z" fill="#313234"/>
<path d="M5 11C5 10.4478 5.44772 10 6 10C6.55228 10 7 10.4478 7 11V17C7 17.5523 6.55228 18 6 18C5.44772 18 5 17.5523 5 17V11Z" fill="#313234"/>
<path d="M19 11C19 10.4478 18.5523 10 18 10C17.4477 10 17 10.4478 17 11V17C17 17.5523 17.4477 18 18 18C18.5523 18 19 17.5523 19 17V11Z" fill="#313234"/>
<path d="M4 19C3.44772 19 3 19.4478 3 20C3 20.5523 3.44772 21 4 21H20C20.5523 21 21 20.5523 21 20C21 19.4478 20.5523 19 20 19H4Z" fill="#313234"/>
<path d="M12.3247 13.296L13.068 13.592C13.804 13.888 14.2433 14.3834 14.2433 15.2234C14.2433 16.0414 13.67 16.7694 12.6633 17.002V18H11.33V17.0174C10.7593 16.9034 10.1973 16.6434 9.75 16.2307L10.5573 15.2467C10.9813 15.6067 11.5327 15.8547 12.0047 15.8547C12.5327 15.8547 12.78 15.6547 12.78 15.3354C12.78 15.0146 12.4954 14.8956 12.0419 14.7059C12.009 14.6921 11.9753 14.678 11.9407 14.6634L11.1813 14.3434C10.5573 14.096 9.974 13.576 9.974 12.7127C9.974 11.9427 10.5087 11.2954 11.33 11.0367V10H12.6633V10.966C13.1787 11.066 13.6807 11.31 14.068 11.6974L13.356 12.5927C12.964 12.2967 12.596 12.1367 12.1327 12.1367C11.6927 12.1367 11.4207 12.3127 11.4207 12.6327C11.4207 12.9429 11.7569 13.0742 12.2399 13.2629C12.2677 13.2737 12.2959 13.2848 12.3247 13.296Z" fill="#313234"/>
</svg>

<svg xmlns="http://www.w3.org/2000/svg" width="24" height="24" fill="none" viewBox="0 0 24 24"><path fill="#313234" fill-rule="evenodd" d="M21 6.65a1 1 0 0 0-.594-.914l-8-3.555a1 1 0 0 0-.812 0l-8 3.555A1 1 0 0 0 3 6.65V8a1 1 0 0 0 1 1h16a1 1 0 0 0 1-1zM5.673 7 12 4.188 18.326 7z" clip-rule="evenodd"/><path fill="#313234" d="M5 11a1 1 0 0 1 2 0v6a1 1 0 1 1-2 0zM19 11a1 1 0 0 0-2 0v6a1 1 0 1 0 2 0zM4 19a1 1 0 0 0 0 2h16a1 1 0 1 0 0-2zM12.325 13.296l.743.296c.736.296 1.175.791 1.175 1.631 0 .818-.573 1.546-1.58 1.779V18H11.33v-.983a3.3 3.3 0 0 1-1.58-.786l.807-.984c.424.36.976.608 1.448.608.528 0 .775-.2.775-.52s-.285-.44-.738-.63l-.101-.042-.76-.32c-.624-.247-1.207-.767-1.207-1.63 0-.77.535-1.418 1.356-1.676V10h1.333v.966a2.7 2.7 0 0 1 1.405.731l-.712.896c-.392-.296-.76-.456-1.223-.456-.44 0-.712.176-.712.496 0 .31.336.441.819.63z"/></svg>
